static/assets/images/flags/1x1/za.svg

<svg height="512" width="512" xmlns="http://www.w3.org/2000/svg" xmlns:xlink="http://www.w3.org/1999/xlink"><clipPath id="a"><path d="m70.1 0h499.6v499.6h-499.6z"/></clipPath><g clip-path="url(#a)" transform="matrix(1.0248 0 0 1.0248 -71.9 0)"><g fill-rule="evenodd" stroke-width="1pt"><path d="m0 397.9v-296l220.4 147.9z"/><path d="m150.4 499.7 247.4-166.5h351.6v166.5z" fill="#00c"/><path d="m134.5 0h615v166.6h-351.8s-259.9-168.2-263.2-166.6z" fill="#f00"/><path d="m0 62.5v39.3l220.4 148-220.4 148v39.4l277.6-187.4z" fill="#fc0"/><path d="m0 62.5v-62.5h92.6l294 199h362.8v101.7h-362.8l-294 198.9h-92.6v-62.4l277.6-187.4z" fill="#093"/><path d="m92.6 0h57.8l247.4 166.6h351.6v32.4h-362.8zm0 499.7h57.8l247.4-166.5h351.6v-32.4h-362.8l-294 198.8z" fill="#fff"/></g></g></svg>

<svg xmlns="http://www.w3.org/2000/svg" id="flag-icon-css-za" width="512" height="512">
  <defs>
    <clipPath id="a">
      <path fill-opacity=".7" d="M70.1 0h499.6v499.6H70.1z"/>
    </clipPath>
  </defs>
  <g clip-path="url(#a)" transform="translate(-71.9) scale(1.0248)">
    <g fill-rule="evenodd" stroke-width="1pt">
      <path d="M0 397.9v-296l220.4 147.9L0 397.9z"/>
      <path fill="#00c" d="M150.4 499.7l247.4-166.5h351.6v166.5h-599z"/>
      <path fill="red" d="M134.5 0h615v166.6H397.7S137.8-1.6 134.5 0z"/>
      <path fill="#fc0" d="M0 62.5v39.3l220.4 148L0 397.8v39.4l277.6-187.4L0 62.5z"/>
      <path fill="#093" d="M0 62.5V0h92.6l294 199h362.8v101.7H386.6l-294 198.9H0v-62.4l277.6-187.4L0 62.5z"/>
      <path fill="#fff" d="M92.6 0h57.8l247.4 166.6h351.6V199H386.6L92.6 0zm0 499.7h57.8l247.4-166.5h351.6v-32.4H386.6l-294 198.8z"/>
    </g>
  </g>
</svg>
